assets/icons/icon_case.svg

<svg width="30" height="30" viewBox="0 0 30 30" fill="none"
    xmlns="http://www.w3.org/2000/svg">
    <path d="M18.75 8.125C18.06 8.125 17.5 7.565 17.5 6.875V5H12.5V6.875C12.5 7.565 11.94 8.125 11.25 8.125C10.56 8.125 10 7.565 10 6.875V5C10 3.62125 11.1212 2.5 12.5 2.5H17.5C18.8787 2.5 20 3.62125 20 5V6.875C20 7.565 19.44 8.125 18.75 8.125Z" fill="#6366F1"/>
    <path d="M22.5 15.625V16.775C22.5 17.2875 22.075 17.7125 21.5625 17.7125C21.05 17.7125 20.625 17.2875 20.625 16.775V15.625H9.375V16.775C9.375 17.2875 8.95 17.7125 8.4375 17.7125C7.925 17.7125 7.5 17.2875 7.5 16.775V15.625H0V24.0625C0 25.9625 1.5375 27.5 3.4375 27.5H26.5625C28.4625 27.5 30 25.9625 30 24.0625V15.625H22.5ZM26.5625 6.25H3.4375C1.5375 6.25 0 7.7875 0 9.6875V13.75H7.5V12.1875C7.5 11.675 7.925 11.25 8.4375 11.25C8.95 11.25 9.375 11.675 9.375 12.1875V13.75H20.625V12.1875C20.625 11.675 21.05 11.25 21.5625 11.25C22.075 11.25 22.5 11.675 22.5 12.1875V13.75H30V9.6875C30 7.7875 28.4625 6.25 26.5625 6.25Z" fill="#4F46E5"/>
</svg>

<svg fill="none" xmlns="http://www.w3.org/2000/svg" viewBox="0 0 30 30"><path d="M18.75 8.13c-.69 0-1.25-.57-1.25-1.26V5h-5v1.88a1.25 1.25 0 0 1-2.5 0V5a2.5 2.5 0 0 1 2.5-2.5h5A2.5 2.5 0 0 1 20 5v1.88c0 .69-.56 1.25-1.25 1.25" fill="#6366F1"/><path d="M22.5 15.63v1.14c0 .52-.43.94-.94.94a.94.94 0 0 1-.93-.94v-1.14H9.38v1.14c0 .52-.43.94-.94.94a.94.94 0 0 1-.94-.94v-1.14H0v8.43c0 1.9 1.54 3.44 3.44 3.44h23.12c1.9 0 3.44-1.54 3.44-3.44v-8.43zm4.06-9.38H3.44A3.44 3.44 0 0 0 0 9.69v4.06h7.5v-1.56c0-.51.42-.94.94-.94.51 0 .94.43.94.94v1.56h11.25v-1.56c0-.51.42-.94.93-.94.52 0 .94.43.94.94v1.56H30V9.69c0-1.9-1.54-3.44-3.44-3.44" fill="#4F46E5"/></svg>
